X:1
T:C Major James P. Carrell, 1821
T:Charles Wesley, 1747 Redemption Hymns No. 46 88. 88. 88. 88. (L. M. D.)
T:Mourner
T:Transcribed from Songs of Zion, 1821
%%score [ 1 2 3 4 ]
L:1/8
Q:1/4=160
M:6/4
K:C
V:1 treble nm="Tr." snm="Tr."
V:2 treble nm="C." snm="C."
V:3 treble-8 nm="T." snm="T."
V:4 bass nm="B." snm="B."
V:1
"^Still out of the deepest abyss   Of  trouble I mournfully  cry,   And\n       pine to recover my peace,  To   see  my Redeemer, and              die:""^1. {" G6 |: %1
 G2 A2 c2 e2 d2 c2 | d6 g6 | e2 c2 A2 B2 c2 d2 |1 c6"^}" G6 :|2 c12 || %6
 z4 z2"^I      cannot, I cannot  forbear  These" d6 | e2 f2 g2 e2 d2 c2 | B6 A6 | %9
"^1. passionate longings for home: O when will my spirit be there?   O  when will  the messenger  come?" G2 A2 d2 c2 B2 A2 | %10
 G6 c6 | A2 B2 c2 d2 e2 d2 | c6 f6 | e2 d2 c2 B2 c2 d2 | c12 |] %15
V:2
"^Thy nature  I   long to put  on,  Thine image on earth to regain, And\n         then in the grave to lay down  My  burden  of  body  and          pain:""^2. {" G6 |: %1
 G2 F2 E2 G2 A2 A2 | G6 E6 | E2 E2 A2 G2 E2 F2 |1 G6"^}" G6 :|2 G12 || %6
 z4 z2"^O    Jesus,  in  pity  draw  near,  And" G6 | E2 E2 E2 E2 G2 A2 | G6 A6 | %9
"^2. lull me to sleep on thy breast,  Appear, to my rescue ap –pear,   And    gather  me  in – to  thy  rest." G2 E2 D2 E2 E2 E2 | %10
 D6 C6 | E2 D2 E2 A2 G2 A2 | c6 A6 | G2 A2 G2 G2 E2 D2 | E12 |] %15
V:3
"^To  take  a  poor  fugitive  in,  The arms of thy mercy display,  And\n       give me to rest from all sin,  And bear me triumphant a   –   –    way;""^3. {" c6 |: %1
 e2 d2 c2 G2 A2 c2 | d6 c6 | e2 e2 c2 d2 c2 A2 |1 c6"^}" c6 :|2 c12 || %6
 z4 z2"^Away from a  world  of distress,  A –" G6 | A2 A2 G2 c2 d2 e2 | g6 e6 | %9
"^3. –way to the mansions above,  The heaven of seeing thy  face,  The   heaven  of  feeling  thy  love." d2 c2 d2 e2 g2 e2 | %10
 d6 e6 | c2 d2 c2 A2 d2 d2 | c6 c6 | G2 A2 c2 d2 c2 A2 | c12 |] %15
V:4
 C,6 |: C,2 D,2 E,2 E,2 F,2 G,2 | G,6 C6 | A,2 A,2 F,2 G,2 E,2 D,2 |1 C,6 C,6 :|2 C,12 || %6
 z4 z2 G,6 | C2 C2 B,2 A,2 G,2 E,2 | G,6 C,6 | D,2 E,2 G,2 A,2 G,2 E,2 | G,6 A,6 | %11
 C2 B,2 A,2 A,2 G,2 A,2 | C6 F,6 | E,2 D,2 E,2 G,2 G,2 A,2 | C,12 |] %15

